X:3675
T:Cylph Dance,The. JMT.073
T:Sylph,The. JMT.073
T:Plymouth Lasses. JMT.073
M:6/8
L:1/8
Q:110
S:J.Moore,Tyneside,1841.(51a)
R:Jig
O:England
A:Tyneside
N:a.k.a. The Selph,Self,et
Z:vmp.Chris Partington
K:D
A|AFA df-a|a-gfe2g|f-ed f-ed|c-ee"*"e2A|AFA dfa|!agf efa|f/-g/ad gec|ddd
d2:|
|:A/G/|F-A.d d-c.B|B-A.G G-FD|!(F/G/A)G F/G/AD|CEEE2A/G/|
FAd dcB|BAGF2D|(F/G/A)D GEC|EDDD2:|]
%Crotchet E missing from MS


